icon-themes/breeze_svg/cmd/lc_displaymasterbackground.svg

<svg viewBox="0 0 24 24" xmlns="http://www.w3.org/2000/svg"><g fill="#1d99f3"><path d="m4 3v1 17h1 8.341797v-.001953c-.111225-.233166-.196729-.476246-.253906-.726563-.000299-.000166.000298-.001787 0-.001953-1.194777-.664276-2.175816-1.450562-2.228516-2.330078 1.03749-1.597249 3.344978-2.651543 5.925781-2.652344.577877.000495 1.132085.067958 1.669922.167969l-3.455078-3.455078-4 4-1-1-4.84375 4.84375-.15625.15625v-16h14v11.560547c.348096.087863.681257.197894 1 .324219v-11.884766-1h-15zm4 2c-1.108 0-2 .892-2 2s.892 2 2 2 2-.892 2-2-.892-2-2-2z"/><path d="m16.5 16c-2.188241.0015-4.134368.942055-5.009766 2.355469-.092129.157984.339278.644531.773438.644531.634901-1.197184 2.331622-1.998218 4.236328-2 1.905423.0012 3.603141.802366 4.238281 2 .459706 0 .885234-.436514.816407-.564453-.850601-1.456946-2.826512-2.433486-5.054688-2.435547zm0 1c-1.380712 0-2.5 1.119288-2.5 2.5s1.119288 2.5 2.5 2.5 2.5-1.119288 2.5-2.5-1.119288-2.5-2.5-2.5zm1 1a.5.5 0 0 1 .5.5.5.5 0 0 1 -.5.5.5.5 0 0 1 -.5-.5.5.5 0 0 1 .5-.5z"/></g></svg>

<svg xmlns="http://www.w3.org/2000/svg" viewBox="0 0 24 24">
  <path
     style="fill:#1d99f3"
     d="M 4 3 L 4 4 L 4 21 L 5 21 L 13.341797 21 C 13.341797 21 13.341797 20.998047 13.341797 20.998047 C 13.230572 20.764881 13.145068 20.521801 13.087891 20.271484 C 13.087592 20.271318 13.088189 20.269697 13.087891 20.269531 C 11.893114 19.605255 10.912075 18.818969 10.859375 17.939453 C 11.896865 16.342204 14.204353 15.28791 16.785156 15.287109 C 17.363033 15.287604 17.917241 15.355067 18.455078 15.455078 L 15 12 L 11 16 L 10 15 L 5.15625 19.84375 L 5 20 L 5 4 L 19 4 L 19 15.560547 C 19.348096 15.64841 19.681257 15.758441 20 15.884766 L 20 4 L 20 3 L 5 3 L 4 3 z M 8 5 C 6.892 5 6 5.892 6 7 C 6 8.108 6.892 9 8 9 C 9.108 9 10 8.108 10 7 C 10 5.892 9.108 5 8 5 z "
     />
  <path
     style="fill:#1d99f3"
     d="M 16.5 16 C 14.311759 16.0015 12.365632 16.942055 11.490234 18.355469 C 11.398105 18.513453 11.829512 19 12.263672 19 C 12.898573 17.802816 14.595294 17.001782 16.5 17 C 18.405423 17.0012 20.103141 17.802366 20.738281 19 C 21.197987 19 21.623515 18.563486 21.554688 18.435547 C 20.704087 16.978601 18.728176 16.002061 16.5 16 z M 16.5 17 C 15.119288 17 14 18.119288 14 19.5 C 14 20.880712 15.119288 22 16.5 22 C 17.880712 22 19 20.880712 19 19.5 C 19 18.119288 17.880712 17 16.5 17 z M 17.5 18 A 0.5 0.5 0 0 1 18 18.5 A 0.5 0.5 0 0 1 17.5 19 A 0.5 0.5 0 0 1 17 18.5 A 0.5 0.5 0 0 1 17.5 18 z "
     />
</svg>
